X:483
T:Wayfaring Stranger
C:Just Some Mandolin Pickers (Bush, Grisman, Marshall, McCoury, Thile - Rockygrass, 2001)
N:Transcribed by Steve Keating
R:bluegrass
L:1/8
Q:1/4=125
M:4/4
K:Bb
"First Break"z2 DD GG Bc | "Gm"d/d/d/d/ d/d/d/d/ d/d/d/d/ d/d/d/d/ | dg dg dg dc | 
BB F/G/G/G/ G/G/G/G/ G/G/G/G/ | GF DF GA (3Bcd | "Cm"[c/E/][c/E/][c/E/][c/E/] [c/E/][c/E/][c/E/][c/E/] [c/E/][c/E/][c/E/][c/E/] [c/E/][c/E/][c/E/][c/E/] | 
c2 cG BB c[gd] | "Gm"[g/d/D/][g/d/D/][g/d/D/][g/d/D/] [g/d/D/][g/d/D/][g/d/D/][g/d/D/] [g/d/D/][g/d/D/][g/d/D/][g/d/D/] [g/d/D/][g/d/D/][g/d/D/][g/d/D/] | 
D2 zD GG Bc | _d/=d/d/d/ d/d/d/d/ d/d/d/d/ d/d/d/d/ | dg dg dg dc | BB G/G/G/G/ G/G/G/G/ G/G/G/G/ | 
G2 GD GB dc | "Cm"[c/E/][c/E/][c/E/][c/E/] [c/E/][c/E/][c/E/][c/E/] [c/E/][c/E/][c/E/][c/E/] [c/E/][c/E/][c/E/][c/E/] | 
"D"D2 dc BG _GB | "Gm"F/G/G/G/ G/G/G/G/ G/G/G/G/ G/G/G/G/ | G2 B2 cd f2 | "Eb"[g/e/][g/e/][g/e/][g/e/] [g/e/][g/e/][g/e/][g/e/] [b/g/][b/g/][b/g/][b/g/] [b/g/][b/g/][b/g/][b/g/] | 
[e'/b/][e'/b/][e'/b/][e'/b/] [d'/b/][d'/b/][d'/b/][d'/b/] [e'/b/][e'/b/][e'/b/][e'/b/] [d'/b/][d'/b/][d'/b/][d'/b/] | 
"Bb"[f/d/][f/d/][f/d/][f/d/] [f/d/][f/d/][f/d/][f/d/] [b/f/][b/f/][b/f/][b/f/] [b/f/][b/f/][b/f/][b/f/] | 
[b/f/][b/f/][b/f/][b/f/] [bf][bf] BB dd | "Eb"[g/e/][g/e/][g/e/][g/e/] [g/e/][g/e/][g/e/][g/e/] [g/e/][g/e/][g/e/][g/e/] [g/e/][g/e/][g/e/][g/e/] | 
"Bb"[f/d/][f/d/][f/d/][f/d/] [f/d/][f/d/][f/d/][f/d/] [f/d/][f/d/][f/d/][f/d/] [BF][BF] | 
"D"[d/_G/][d/G/][d/G/][d/G/] [d/G/][d/G/][d/G/][d/G/] [d/G/][d/G/][d/G/][d/G/] [d/G/][d/G/][d/G/][d/G/] | 
[d2_G2] zg bb c'c' | "Gm"d'/d'/d'/d'/ d'/d'/d'/d'/ d'/d'/d'/d'/ d'/d'/d'/d'/ | 
d'/d'/d'/d'/ _d'/=d'/d'/d'/ _d'/=d'/d'/d'/ _d'/=d'/d'/d'/ | d'_d' c'b (3gc'b (3gc'b | 
g2 gg gb d'c' | "Cm"c'/c'/c'/c'/ c'/c'/c'/c'/ c'/c'/d'/d'/ d'/d'/f'/f'/ | "D"_d'/=d'/d'/d'/ d'/d'/d'/d'/ d'c' b2 | 
"Gm"gz/f/ zd cz/B/ z/A/z | G8 | "Second Break"z4 dc GF | F/A/A/A/ A/A/A/A/ A2 DF | 
F4 (3DAG (3AGA | (3DFD (3DFD (3CDC D2 | z2 (3DA,G, (3CDE (3FGGE/ | [c2E2] CG, B,2 [cE][cE] | 
C/C/D/E/ F/_G/=G/B/ {c}d/B/G/B/ B/F/G/D/ | B/c/B/c/ B/c/z z2 (3DFA | (3DFD F2 FD (3F_G=G | 
B/G/G/(3B (3cdg _g=g ab | f_g/z/ zf/g/ Bc c/d/d | BG z[gB] zG/(3B (3dB=e | (3dBd (3B=eB (3dBe (3BdB | 
(3eBd (3BeB (3dBe (3BdB | (3cAd (3A_dA (3cAA (3_gG_A | (3A_AG (3DFD (3CDC (3A,B,A, | 
G,2 [BF][BF] Bc df | e/e/e/e/ g/g/g/g/ b/b/b/b/ c'/c'/c'/c'/ | e'/e'/e'/e'/ e'/e'/e'/e'/ e'd' c'd' | 
c'/d'/c'/b/ c'/c'/b/g/ b/g/f/g/ c/d/z/e/ | d/e/d/c/ d/c/B B2 FE | D/E/G/B/ d/B/d/d/ B/d/z c/A/c/c/ | 
d/F/D/F/ A/B/c/(3_d (3=dfa (3faf | (3ad'a (3d'ad' (3ad'a (3d'bd' | (3bgb zc' c'/a/c'/a/ c'/a/c'/d'/ | 
(3d'g'g' g2 z/(3zd' (3f'd'f' | (3d'f'd' f'/g'/g'/g'/ g'/g'/f'/f'/ d'/d'/e'/e'/ | 
d'/d'/c'/c'/ c'/c'/b/b/ c'/c'/c'/c'/ b/b/g/g/ | g/g/g/g/ g/g/g/g/ g2 [e'e][d'd] | 
[c'c][d'd] [g/G/][g/G/][g/G/][g/G/] [gG][d'/d/][e'/e/] [d'2d2] | [c'c][_g_G] [gG][gG] [=g=G][aA] z[_a_A] | 
[g/G/][g/G/][g/G/][g/G/] [g/G/][g/G/][g/G/][g/G/] [b/B/][b/B/][b/B/][b/B/] [g/G/][g/G/][g/G/][g/G/] | 
[g8G8] | z[DG,] [DG,][DG,] DF GD | [d/D/][d/D/][d/D/][d/D/] [d/D/][d/D/][d/D/][d/D/] [_d/D/][d/D/][d/D/][d/D/] [d/D/][d/D/][=d/D/][d/D/] | 
[dD]d zc BG zF | Gc AG Bd (3gFG | [DG,][DG,] [DG,][DG,] (3B,CD FG | (3cdc B/c/c/c/ c/c/c/c/ c/c/c/c/ | 
c/c/c/(3c (3c_dB cG Bc | {c}dd [g/d/][g/d/][g/d/][g/d/] [g/d/][g/d/][g/d/][g/d/] [g/d/][g/d/][g/d/][g/d/] | 
[gd]D DD [dF][=eG] [dF][c=E] | [B2D2] _dc (3cBG BB | G2 GG GB GG | G[dD] [_dD][cD] [B2D2] [=dD][_dD] | 
[cD][BD] AG DF G2 | cd c/c/c/c/ c2 b/b/a | gf df (3cdf _d/c/B | cB zF GD FG | 
[DG,]B, (3G,CD FG Bd | [e/G/][e/G/][e/G/][e/G/] [e/G/][e/G/][e/G/][e/G/] [c'/g/][c'/g/][c'/g/][c'/g/] [b/g/][b/g/][b/g/][b/g/] | 
[e'/b/][e'/b/][e'/b/][e'/b/] [e'/b/][e'/b/][e'/b/][e'/b/] [e'/b/][e'/b/][e'/b/][e'/b/] [e'/b/][e'/b/][c'/g/][c'/g/] | 
[b/f/][b/g/][b/g/][b/f/] [b/g/][b/g/][b/f/][b/f/] [b/f/][b/f/][b/f/][b/f/] [bf][bf] | 
(3cdf (3F[bd]G G[c'e] A[d'f] | e/e/e/e/ e/e/e/e/ [c'/g/][c'/g/][c'/g/][c'/g/] [b/g/][b/g/][b/g/][b/g/] | 
[b/g/][b/f/][b/g/][b/f/] [b/f/][b/f/][b/f/][b/f/] [b2f2] za | _ag g_g f=e ed | 
dc =B_B (3AGF (3DCB, | G,[c/D/]d/ z[c/D/]d/ [d4D4] | z2 d_d cc =d_d/c/ | zB z[=E/G,/][F/G,/] [DG,][DG,] (3[FG,][DG,][FG,] | 
[DG,]_G =GA FG dd | [c/E/][c/E/][c/E/][c/E/] [cE][cE] [cE]c db | aa _g/a/b/a/ =gg a2 | 
c'd' _d'c' bb gg | (3ffd (3BAG (3FDF D/F/D/B,/ | G,8 | "Third Break"z4 zd' c'/_d'/e' | 
d'd' z_d'/e'/ =d'd' z_d'/=d'/ | g'_d' _g'd' f'd' =e'_e' | d'd' z_d'/e'/ =d'd' z2 | 
zc' c'a ba {g}a/g/f | [c'e][c'e] z/c/d/e/ c/G/F/(3E (3FGE | C/=B,/C/D/ E/F/_G/=G/ c/G/c/(3d (3ed_d | 
d[dD] g_d'/e'/ =d'd' z_d/e/ | d/_D/E =DD (3z_G=G (3Bc_d | dd gg _gg dd | ff dd d/=e/e _dd | 
dd f/g/g g/a/a gg | z2 zd (3gab (3c'd'd' | zd' (3d'c'b c'c' zc' | (3c'ba (3bzb (3aba (3ba_g | 
ge =e_d =d=B _dA | B/_G/=G/E/ F/D/E/C/ D/B,/C/A,/ B,/C/E/F/ | [eE]F (3GBc c/d/d/(3d (3dcB | 
F/G/B/e/ fg g/b/b/(3b (3bgf | =e/f/f/f/ fc/(3d (3gfc (3dcB | (3F=E_E (3_D=DF (3BAf bf | 
f/g/g/g/ g/g'/g'/g'/ g'/g'/g'/g'/ a'b' | f'/f'/f'/f'/ zd'/(3=e' (3f'g'b' (3g'_a'=a' | 
b'a' b'a' b'a' g'a' | _g'g' a'a' =g'a' b'c'' | d''/d''/d''/d''/ d''/d''/c''/b'/ _d''/d''/d''/d''/ d''/d''/c''/b'/ | 
c''/c''/c''/c''/ c''/c''/a'/g'/ a'b' (3za'g' | a'/g'/d'/g'/ z/d'/g'/a'/ b'a' g'/f'/d'/g'/ | 
f'/c'/d'/b/ b/c'/d'/b/ c'/b/a/c'/ za/g/ | fe/z/ zf/g/ d'/d'/d'/d'/ d'/d'/c'/b/ | 
a/a/a/a/ ab/c'/ f'/f'/f'/f'/ f'e' | d'/e'/d' z2 c'/d'/c' zb/a/ | (3bag fz/e/ dz/c/ Bz/A/ | 
G8 | "Fourth Break"z4 zD GB | d/d/d/d/ d/d/d/d/ d/d/d/d/ d2 | zD GB cd (3zcB | 
cB G6 | z2 (3cdd dd zd | ec/c/ c/c/c/c/ c/c/c/c/ c/c/c/c/ | ca za ab za | b/c'/c'/c'/ c'/c'/c'/c'/ c'/d'/d'/d'/ d'/d'/d'/d'/ | 
d'/f'/f'/f'/ f'/f'/f'/f'/ _g'/g'/g'/g'/ g'/d'/d'/g/ | g'/g'/g'/g'/ g'/g'/g'/g'/ a'/a'/a'/a'/ a'/a'/b'/b'/ | 
g'/g'/g'/g'/ g'/g'/g'/g'/ _g'/g'/g'/g'/ g'/=g'/g'/g'/ | g'3d'/d'/ d'/d'/_d'/d'/ =d'/d'/d'/d'/ | 
a/b/b/b/ ab gg ec | de ga ba gd | dz/z/ dd cd AB | z_G z/=G/z Az/B/ z2 | _d=d z/g/g a/a/a/a/ a/a/a/a/ | 
[b/g/][b/g/][b/g/][b/g/] [b/g/][b/g/][b/g/][b/g/] [b/g/][b/g/][b/g/][b/g/] [b/g/][b/g/][g/e/][g/e/] | 
[e'/b/][e'/b/][e'/b/][e'/b/] [e'/b/][e'/b/][e'/b/][e'/b/] [e'/b/][e'/b/][e'/b/][e'/b/] [e/B/][e/B/][e/B/][e/B/] | 
[b/f/][b/f/][b/f/][b/f/] [b/f/][b/f/][b/f/][b/f/] [b/f/][b/g/][b/g/][b/g/] [f/c/]f/[f/c/]f/ | 
[f/d/][f/d/][f/d/][f/d/] [f/d/][f/d/][f/d/][f/d/] [f/c/][f/c/][f/d/][f/d/] [c'/g/][c'/g/][_d'/_a/][=d'/=a/] | 
[e'/g/][e'/g/][e'/g/][e'/g/] [e'/g/][e'/g/][e'/g/][e'/g/] [d'/f/][d'/f/][d'/f/][d'/f/] [d'/f/][d'/f/][d'/f/][d'/f/] | 
[c'/e/][c'/e/][c'/e/][c'/e/] [c'/e/][c'/e/][c'/e/][c'/e/] [b/d/][b/d/][b/d/][b/d/] [b/d/][b/d/][b/d/][b/d/] | 
[_g/A/][g/A/][g/A/][d'/g/] [d'/g/][d'/g/][=e'/=g/][e'/g/] [e'/g/][e'/g/][e'/g/][e'/g/] [f'/_a/][f'/a/][f'/a/][f'/a/] | 
[_g'3a3]G, B,D z/G/B | c/d/d z6 | z2 (3B,DG Bc _dc | BF/G/ G/G/G/G/ G/G/G/G/ G2 | 
zd zc Bc c/d/z | B/c/c/c/ c/c/c/c/ zB cB | cB cB cA (3zD_G | G/G/G/G/ G/G/G/G/ GD B,D | 
G,4 (3"Fifth Break"DFG (3Bcd | (3gfd (3gfd (3gfd (3bfd | (3gfd (3fgd (3fdc (3BGc | 
(3zBG (3FDG (3DFD (3DCB, | G,2 (3G,B,D DG/z/ Bd | [c/E/][c/E/][c/E/][c/E/] [d/F/][d/F/][d/F/][d/F/] [e/G/][e/G/][e/G/][e/G/] [d/F/][d/F/][d/F/][d/F/] | 
[c/E/][c/E/][c/E/][c/E/] [cE][cE] [cE]D/F/ G/A/B/c/ | dg dg ab ab | c'b c'c'/c'/ d'/d'/d'/_d'/ =d'/d'/d'/f'/ | 
_d'/=d'/f' (3_d'=d'f' _d'/=d'/d'/f'/ _d'/=d'/d'/d'/ | d'/d'/d'/d'/ d'/d'/d'/d'/ d'_d' zc' | 
bg z2 [d'd][c'c] [b2B2] | G,2 z[BDG,] G,[BDG,] [D2G,2] | [c/E/][c/E/][c/E/][c/E/] [c/E/][c/E/][c/E/][c/E/] [c2E2] [E2G,2] | 
Dd _dc BG F_G | GF DC DC B,A, | G,2 dd df gg | [b/g/][b/g/][b/g/][b/g/] [b/g/][b/g/][b/g/][b/g/] [b/g/][b/g/][b/g/][b/g/] [b/g/][b/g/][b/g/][b/g/] | 
[b/g/][b/g/][b/g/][b/g/] [b/g/][b/g/][b/g/][b/g/] [b/f/][b/f/][b/g/][b/g/] [b/f/][b/f/][b/f/][b/f/] | 
[b/d/][b/d/][b/d/][b/d/] [b/d/][b/d/][b/f/][b/f/] [b/f/][b/f/][b/f/][b/f/] [b/f/][b/f/][b/f/][b/f/] | 
[b/f/][b/f/][b/f/][b/f/] [b2f2] fg bb | [e'/b/][e'/b/][e'/b/][e'/b/] [e'/b/][e'/b/][e'/b/][e'/b/] [e'/b/][e'/b/][e'/b/][e'/b/] [e'/b/][e'/b/][e'/b/][e'/b/] | 
[d'/b/][d'/b/][d'/b/][d'/b/] [d'/b/][d'/b/][d'/b/][d'/b/] [d'/b/][d'/b/][d'/b/][d'/b/] [d'/b/][d'/b/][d'/b/][d'/b/] | 
[a/_g/][a/g/][a/g/][a/g/] [a/g/][a/g/][a/g/][a/g/] [c'/a/][c'/a/][c'/a/][c'/a/] [c'/a/][c'/a/][c'/a/][c'/a/] | 
[d'2a2] DD GG BB | d/d/d/d/ d/d/d/d/ d/d/d/d/ d/d/d/d/ | d2 c/d/d/d/ d/d/d/d/ d/d/d/d/ | 
BG (3GGG GG (3GGG | G2 zD DG Bd | [c/E/][c/E/][c/E/][c/E/] [c/E/][c/E/][c/E/][c/E/] [c/E/][c/E/][c/E/][c/E/] [c/E/][c/E/][c/E/][c/E/] | 
{c}d2 cB G2 F_G | G/G/G/G/ G/G/G/G/ G/G/G/G/ G/G/G/G/ | G8 | z8 | z8 | 


